X: 19
T: Loftus Jones
O:Ireland
M:C|
Z:Richard Robinson <abclist:beulah.demon.co.UK>
%I:speed 400
C:Turlough o'Carolan
K:A
a4   g2f2 | e2d2 cde2 | dcBA A2z2 | cdcB A2B2 |\
cde2 def2 | e2dc dcBA | GAGF E2z2 | ABAG F2d2 |
edec dcdB | A2E2 F2G2 | A2F2 G2A2 | B2G2 A2B2 |\
c2A2 B2c2 | d4   e2z2 | dcBA GAB2 | A2ED C2E2 | A4 A2z2 :|
|:\
e2G2 A2F2 | G2E2 F2G2 | A2B2 G2c2 | F4   G4   |\
c2c2 B4   | ABcd c2B2 | ABcd edcB | A2G2 F4   |
CFAF CFAF | EGEG EGEG | FAFA FAFA | GBGB GBGB |
AcAc AcAc | AcAc AcAc | fga2 g4   | f4   f2g2 |\
aAaA gAgA | fAfA eAeA |
dBdB cAcA | BAGF EFG2 |\
A2ED C2E2 | BAGF E2e2 | dcBA GABG | A4   A2z2 :|

%%sep 1 1 500

